images/content/johnson-solids/snub-disphenoid.svg

<?xml version="1.0" encoding="UTF-8"?>
<svg xmlns="http://www.w3.org/2000/svg" xmlns:xlink="http://www.w3.org/1999/xlink" width="203.95pt" height="190.05pt" viewBox="0 0 203.95 190.05" version="1.2">
<defs>
<clipPath id="clip1">
  <path d="M 23 74 L 129 74 L 129 189.105469 L 23 189.105469 Z M 23 74 "/>
</clipPath>
<clipPath id="clip2">
  <path d="M 118 75 L 203.417969 75 L 203.417969 189 L 118 189 Z M 118 75 "/>
</clipPath>
<clipPath id="clip3">
  <path d="M 117 74 L 203.417969 74 L 203.417969 189.105469 L 117 189.105469 Z M 117 74 "/>
</clipPath>
<clipPath id="clip4">
  <path d="M 127 25 L 203.417969 25 L 203.417969 124 L 127 124 Z M 127 25 "/>
</clipPath>
<clipPath id="clip5">
  <path d="M 127 24 L 203.417969 24 L 203.417969 125 L 127 125 Z M 127 24 "/>
</clipPath>
<clipPath id="clip6">
  <path d="M 23 117 L 119 117 L 119 189.105469 L 23 189.105469 Z M 23 117 "/>
</clipPath>
<clipPath id="clip7">
  <path d="M 89 123 L 203.417969 123 L 203.417969 189 L 89 189 Z M 89 123 "/>
</clipPath>
<clipPath id="clip8">
  <path d="M 88 123 L 203.417969 123 L 203.417969 189.105469 L 88 189.105469 Z M 88 123 "/>
</clipPath>
<clipPath id="clip9">
  <path d="M 0.480469 0 L 42 0 L 42 118 L 0.480469 118 Z M 0.480469 0 "/>
</clipPath>
<clipPath id="clip10">
  <path d="M 0.480469 0 L 43 0 L 43 119 L 0.480469 119 Z M 0.480469 0 "/>
</clipPath>
<clipPath id="clip11">
  <path d="M 0.480469 0 L 129 0 L 129 48 L 0.480469 48 Z M 0.480469 0 "/>
</clipPath>
<clipPath id="clip12">
  <path d="M 0.480469 0 L 130 0 L 130 49 L 0.480469 49 Z M 0.480469 0 "/>
</clipPath>
<clipPath id="clip13">
  <path d="M 0.480469 47 L 90 47 L 90 149 L 0.480469 149 Z M 0.480469 47 "/>
</clipPath>
<clipPath id="clip14">
  <path d="M 89 25 L 203.417969 25 L 203.417969 149 L 89 149 Z M 89 25 "/>
</clipPath>
<clipPath id="clip15">
  <path d="M 88 24 L 203.417969 24 L 203.417969 149 L 88 149 Z M 88 24 "/>
</clipPath>
<clipPath id="clip16">
  <path d="M 0.480469 25 L 129 25 L 129 149 L 0.480469 149 Z M 0.480469 25 "/>
</clipPath>
<clipPath id="clip17">
  <path d="M 0.480469 24 L 130 24 L 130 149 L 0.480469 149 Z M 0.480469 24 "/>
</clipPath>
</defs>
<g id="surface1">
<path style=" stroke:none;fill-rule:nonzero;fill:rgb(46.965027%,32.069397%,35.845947%);fill-opacity:1;" d="M 41.921875 0.34375 L 128.695312 25.089844 L 127.832031 75.171875 L 41.921875 0.34375 "/>
<path style="fill:none;stroke-width:6.94;stroke-linecap:round;stroke-linejoin:round;stroke:rgb(13.729858%,12.159729%,12.548828%);stroke-opacity:1;stroke-miterlimit:10;" d="M 416.466884 1897.045317 L 1288.538789 1648.3474 L 1279.862824 1145.023645 Z M 416.466884 1897.045317 " transform="matrix(0.0995026,0,0,-0.0995026,0.48233,189.104725)"/>
<path style=" stroke:none;fill-rule:nonzero;fill:rgb(78.295898%,67.256165%,69.236755%);fill-opacity:1;" d="M 24.21875 117.917969 L 41.921875 0.34375 L 127.832031 75.171875 L 24.21875 117.917969 "/>
<path style="fill:none;stroke-width:6.94;stroke-linecap:round;stroke-linejoin:round;stroke:rgb(13.729858%,12.159729%,12.548828%);stroke-opacity:1;stroke-miterlimit:10;" d="M 238.55071 715.425965 L 416.466884 1897.045317 L 1279.862824 1145.023645 Z M 238.55071 715.425965 " transform="matrix(0.0995026,0,0,-0.0995026,0.48233,189.104725)"/>
<path style=" stroke:none;fill-rule:nonzero;fill:rgb(77.381897%,68.727112%,72.647095%);fill-opacity:1;" d="M 127.832031 75.171875 L 118.335938 188.757812 L 24.21875 117.917969 L 127.832031 75.171875 "/>
<g clip-path="url(#clip1)" clip-rule="nonzero">
<path style="fill:none;stroke-width:6.94;stroke-linecap:round;stroke-linejoin:round;stroke:rgb(13.729858%,12.159729%,12.548828%);stroke-opacity:1;stroke-miterlimit:10;" d="M 1279.862824 1145.023645 L 1184.427207 3.486467 L 238.55071 715.425965 Z M 1279.862824 1145.023645 " transform="matrix(0.0995026,0,0,-0.0995026,0.48233,189.104725)"/>
</g>
<g clip-path="url(#clip2)" clip-rule="nonzero">
<path style=" stroke:none;fill-rule:nonzero;fill:rgb(62.753296%,54.91333%,67.248535%);fill-opacity:1;" d="M 127.832031 75.171875 L 203.074219 123.929688 L 118.335938 188.757812 L 127.832031 75.171875 "/>
</g>
<g clip-path="url(#clip3)" clip-rule="nonzero">
<path style="fill:none;stroke-width:6.94;stroke-linecap:round;stroke-linejoin:round;stroke:rgb(13.729858%,12.159729%,12.548828%);stroke-opacity:1;stroke-miterlimit:10;" d="M 1279.862824 1145.023645 L 2036.045819 655.008271 L 1184.427207 3.486467 Z M 1279.862824 1145.023645 " transform="matrix(0.0995026,0,0,-0.0995026,0.48233,189.104725)"/>
</g>
<g clip-path="url(#clip4)" clip-rule="nonzero">
<path style=" stroke:none;fill-rule:nonzero;fill:rgb(36.889648%,26.434326%,31.585693%);fill-opacity:1;" d="M 128.695312 25.089844 L 203.074219 123.929688 L 127.832031 75.171875 L 128.695312 25.089844 "/>
</g>
<g clip-path="url(#clip5)" clip-rule="nonzero">
<path style="fill:none;stroke-width:6.94;stroke-linecap:round;stroke-linejoin:round;stroke:rgb(13.729858%,12.159729%,12.548828%);stroke-opacity:1;stroke-miterlimit:10;" d="M 1288.538789 1648.3474 L 2036.045819 655.008271 L 1279.862824 1145.023645 Z M 1288.538789 1648.3474 " transform="matrix(0.0995026,0,0,-0.0995026,0.48233,189.104725)"/>
</g>
<path style=" stroke:none;fill-rule:nonzero;fill:rgb(15.531921%,13.710022%,13.853455%);fill-opacity:1;" d="M 118.335938 188.757812 L 89.3125 148.054688 L 24.21875 117.917969 L 118.335938 188.757812 "/>
<g clip-path="url(#clip6)" clip-rule="nonzero">
<path style="fill:none;stroke-width:6.94;stroke-linecap:round;stroke-linejoin:round;stroke:rgb(13.729858%,12.159729%,12.548828%);stroke-opacity:1;stroke-miterlimit:10;" d="M 1184.427207 3.486467 L 892.742042 412.552338 L 238.55071 715.425965 Z M 1184.427207 3.486467 " transform="matrix(0.0995026,0,0,-0.0995026,0.48233,189.104725)"/>
</g>
<g clip-path="url(#clip7)" clip-rule="nonzero">
<path style=" stroke:none;fill-rule:nonzero;fill:rgb(76.940918%,49.085999%,38.972473%);fill-opacity:1;" d="M 203.074219 123.929688 L 89.3125 148.054688 L 118.335938 188.757812 L 203.074219 123.929688 "/>
</g>
<g clip-path="url(#clip8)" clip-rule="nonzero">
<path style="fill:none;stroke-width:6.94;stroke-linecap:round;stroke-linejoin:round;stroke:rgb(13.729858%,12.159729%,12.548828%);stroke-opacity:1;stroke-miterlimit:10;" d="M 2036.045819 655.008271 L 892.742042 412.552338 L 1184.427207 3.486467 Z M 2036.045819 655.008271 " transform="matrix(0.0995026,0,0,-0.0995026,0.48233,189.104725)"/>
</g>
<g clip-path="url(#clip9)" clip-rule="nonzero">
<path style=" stroke:none;fill-rule:nonzero;fill:rgb(96.879578%,75.280762%,48.301697%);fill-opacity:1;" d="M 24.21875 117.917969 L 0.828125 47.722656 L 41.921875 0.34375 L 24.21875 117.917969 "/>
</g>
<g clip-path="url(#clip10)" clip-rule="nonzero">
<path style="fill:none;stroke-width:6.94;stroke-linecap:round;stroke-linejoin:round;stroke:rgb(13.729858%,12.159729%,12.548828%);stroke-opacity:1;stroke-miterlimit:10;" d="M 238.55071 715.425965 L 3.475237 1420.887932 L 416.466884 1897.045317 Z M 238.55071 715.425965 " transform="matrix(0.0995026,0,0,-0.0995026,0.48233,189.104725)"/>
</g>
<g clip-path="url(#clip11)" clip-rule="nonzero">
<path style=" stroke:none;fill-rule:nonzero;fill:rgb(61.073303%,69.366455%,86.219788%);fill-opacity:1;" d="M 0.828125 47.722656 L 128.695312 25.089844 L 41.921875 0.34375 L 0.828125 47.722656 "/>
</g>
<g clip-path="url(#clip12)" clip-rule="nonzero">
<path style="fill:none;stroke-width:6.94;stroke-linecap:round;stroke-linejoin:round;stroke:rgb(13.729858%,12.159729%,12.548828%);stroke-opacity:1;stroke-miterlimit:10;" d="M 3.475237 1420.887932 L 1288.538789 1648.3474 L 416.466884 1897.045317 Z M 3.475237 1420.887932 " transform="matrix(0.0995026,0,0,-0.0995026,0.48233,189.104725)"/>
</g>
<g clip-path="url(#clip13)" clip-rule="nonzero">
<path style=" stroke:none;fill-rule:nonzero;fill:rgb(34.013367%,25.392151%,29.354858%);fill-opacity:1;" d="M 89.3125 148.054688 L 0.828125 47.722656 L 24.21875 117.917969 L 89.3125 148.054688 "/>
<path style="fill:none;stroke-width:6.94;stroke-linecap:round;stroke-linejoin:round;stroke:rgb(13.729858%,12.159729%,12.548828%);stroke-opacity:1;stroke-miterlimit:10;" d="M 892.742042 412.552338 L 3.475237 1420.887932 L 238.55071 715.425965 Z M 892.742042 412.552338 " transform="matrix(0.0995026,0,0,-0.0995026,0.48233,189.104725)"/>
</g>
<g clip-path="url(#clip14)" clip-rule="nonzero">
<path style=" stroke:none;fill-rule:nonzero;fill:rgb(79.949951%,69.151306%,70.263672%);fill-opacity:1;" d="M 89.3125 148.054688 L 203.074219 123.929688 L 128.695312 25.089844 L 89.3125 148.054688 "/>
</g>
<g clip-path="url(#clip15)" clip-rule="nonzero">
<path style="fill:none;stroke-width:6.94;stroke-linecap:round;stroke-linejoin:round;stroke:rgb(13.729858%,12.159729%,12.548828%);stroke-opacity:1;stroke-miterlimit:10;" d="M 892.742042 412.552338 L 2036.045819 655.008271 L 1288.538789 1648.3474 Z M 892.742042 412.552338 " transform="matrix(0.0995026,0,0,-0.0995026,0.48233,189.104725)"/>
</g>
<g clip-path="url(#clip16)" clip-rule="nonzero">
<path style=" stroke:none;fill-rule:nonzero;fill:rgb(76.828003%,67.779541%,71.77887%);fill-opacity:1;" d="M 128.695312 25.089844 L 0.828125 47.722656 L 89.3125 148.054688 L 128.695312 25.089844 "/>
</g>
<g clip-path="url(#clip17)" clip-rule="nonzero">
<path style="fill:none;stroke-width:6.94;stroke-linecap:round;stroke-linejoin:round;stroke:rgb(13.729858%,12.159729%,12.548828%);stroke-opacity:1;stroke-miterlimit:10;" d="M 1288.538789 1648.3474 L 3.475237 1420.887932 L 892.742042 412.552338 Z M 1288.538789 1648.3474 " transform="matrix(0.0995026,0,0,-0.0995026,0.48233,189.104725)"/>
</g>
</g>
</svg>

<svg xmlns="http://www.w3.org/2000/svg" width="271.933" height="253.4" viewBox="0 0 203.95 190.05" version="1.2"><defs><clipPath id="a"><path d="M23 74h106v115.105H23Zm0 0"/></clipPath><clipPath id="b"><path d="M118 75h85.418v114H118Zm0 0"/></clipPath><clipPath id="c"><path d="M117 74h86.418v115.105H117Zm0 0"/></clipPath><clipPath id="d"><path d="M127 25h76.418v99H127Zm0 0"/></clipPath><clipPath id="e"><path d="M127 24h76.418v101H127Zm0 0"/></clipPath><clipPath id="f"><path d="M23 117h96v72.105H23Zm0 0"/></clipPath><clipPath id="g"><path d="M89 123h114.418v66H89Zm0 0"/></clipPath><clipPath id="h"><path d="M88 123h115.418v66.105H88Zm0 0"/></clipPath><clipPath id="i"><path d="M.48 0H42v118H.48Zm0 0"/></clipPath><clipPath id="j"><path d="M.48 0H43v119H.48Zm0 0"/></clipPath><clipPath id="k"><path d="M.48 0H129v48H.48Zm0 0"/></clipPath><clipPath id="l"><path d="M.48 0H130v49H.48Zm0 0"/></clipPath><clipPath id="m"><path d="M.48 47H90v102H.48Zm0 0"/></clipPath><clipPath id="n"><path d="M89 25h114.418v124H89Zm0 0"/></clipPath><clipPath id="o"><path d="M88 24h115.418v125H88Zm0 0"/></clipPath><clipPath id="p"><path d="M.48 25H129v124H.48Zm0 0"/></clipPath><clipPath id="q"><path d="M.48 24H130v125H.48Zm0 0"/></clipPath></defs><path style="stroke:none;fill-rule:nonzero;fill:#78525b;fill-opacity:1" d="m41.922.344 86.773 24.746-.863 50.082L41.922.344"/><path style="fill:none;stroke-width:6.94;stroke-linecap:round;stroke-linejoin:round;stroke:#231f20;stroke-opacity:1;stroke-miterlimit:10" d="m416.467 1897.045 872.072-248.698-8.676-503.323Zm0 0" transform="matrix(.0995 0 0 -.0995 .482 189.105)"/><path style="stroke:none;fill-rule:nonzero;fill:#c8acb1;fill-opacity:1" d="M24.219 117.918 41.922.344l85.91 74.828-103.613 42.746"/><path style="fill:none;stroke-width:6.94;stroke-linecap:round;stroke-linejoin:round;stroke:#231f20;stroke-opacity:1;stroke-miterlimit:10" d="m238.55 715.426 177.917 1181.62 863.396-752.022Zm0 0" transform="matrix(.0995 0 0 -.0995 .482 189.105)"/><path style="stroke:none;fill-rule:nonzero;fill:#c5afb9;fill-opacity:1" d="m127.832 75.172-9.496 113.586-94.117-70.84 103.613-42.746"/><g clip-path="url(#a)"><path style="fill:none;stroke-width:6.94;stroke-linecap:round;stroke-linejoin:round;stroke:#231f20;stroke-opacity:1;stroke-miterlimit:10" d="M1279.863 1145.024 1184.427 3.486l-945.876 711.94Zm0 0" transform="matrix(.0995 0 0 -.0995 .482 189.105)"/></g><g clip-path="url(#b)"><path style="stroke:none;fill-rule:nonzero;fill:#a08cab;fill-opacity:1" d="m127.832 75.172 75.242 48.758-84.738 64.828 9.496-113.586"/></g><g clip-path="url(#c)"><path style="fill:none;stroke-width:6.94;stroke-linecap:round;stroke-linejoin:round;stroke:#231f20;stroke-opacity:1;stroke-miterlimit:10" d="m1279.863 1145.024 756.183-490.016L1184.427 3.486Zm0 0" transform="matrix(.0995 0 0 -.0995 .482 189.105)"/></g><g clip-path="url(#d)"><path style="stroke:none;fill-rule:nonzero;fill:#5e4351;fill-opacity:1" d="m128.695 25.09 74.38 98.84-75.243-48.758.863-50.082"/></g><g clip-path="url(#e)"><path style="fill:none;stroke-width:6.94;stroke-linecap:round;stroke-linejoin:round;stroke:#231f20;stroke-opacity:1;stroke-miterlimit:10" d="m1288.539 1648.347 747.507-993.339-756.183 490.016Zm0 0" transform="matrix(.0995 0 0 -.0995 .482 189.105)"/></g><path style="stroke:none;fill-rule:nonzero;fill:#282323;fill-opacity:1" d="m118.336 188.758-29.023-40.703-65.094-30.137 94.117 70.84"/><g clip-path="url(#f)"><path style="fill:none;stroke-width:6.94;stroke-linecap:round;stroke-linejoin:round;stroke:#231f20;stroke-opacity:1;stroke-miterlimit:10" d="M1184.427 3.486 892.742 412.552 238.551 715.426Zm0 0" transform="matrix(.0995 0 0 -.0995 .482 189.105)"/></g><g clip-path="url(#g)"><path style="stroke:none;fill-rule:nonzero;fill:#c47d63;fill-opacity:1" d="M203.074 123.93 89.312 148.055l29.024 40.703 84.738-64.828"/></g><g clip-path="url(#h)"><path style="fill:none;stroke-width:6.94;stroke-linecap:round;stroke-linejoin:round;stroke:#231f20;stroke-opacity:1;stroke-miterlimit:10" d="M2036.046 655.008 892.742 412.552 1184.427 3.486Zm0 0" transform="matrix(.0995 0 0 -.0995 .482 189.105)"/></g><g clip-path="url(#i)"><path style="stroke:none;fill-rule:nonzero;fill:#f7c07b;fill-opacity:1" d="M24.219 117.918.829 47.723 41.921.343 24.219 117.919"/></g><g clip-path="url(#j)"><path style="fill:none;stroke-width:6.94;stroke-linecap:round;stroke-linejoin:round;stroke:#231f20;stroke-opacity:1;stroke-miterlimit:10" d="M238.55 715.426 3.476 1420.888l412.992 476.157Zm0 0" transform="matrix(.0995 0 0 -.0995 .482 189.105)"/></g><g clip-path="url(#k)"><path style="stroke:none;fill-rule:nonzero;fill:#9cb1dc;fill-opacity:1" d="M.828 47.723 128.695 25.09 41.922.344.828 47.723"/></g><g clip-path="url(#l)"><path style="fill:none;stroke-width:6.94;stroke-linecap:round;stroke-linejoin:round;stroke:#231f20;stroke-opacity:1;stroke-miterlimit:10" d="m3.475 1420.888 1285.064 227.46-872.072 248.697Zm0 0" transform="matrix(.0995 0 0 -.0995 .482 189.105)"/></g><g clip-path="url(#m)"><path style="stroke:none;fill-rule:nonzero;fill:#57414b;fill-opacity:1" d="M89.313 148.055.828 47.723l23.39 70.195 65.094 30.137"/><path style="fill:none;stroke-width:6.94;stroke-linecap:round;stroke-linejoin:round;stroke:#231f20;stroke-opacity:1;stroke-miterlimit:10" d="M892.742 412.552 3.475 1420.888l235.076-705.462Zm0 0" transform="matrix(.0995 0 0 -.0995 .482 189.105)"/></g><g clip-path="url(#n)"><path style="stroke:none;fill-rule:nonzero;fill:#ccb0b3;fill-opacity:1" d="m89.313 148.055 113.761-24.125-74.379-98.84-39.382 122.965"/></g><g clip-path="url(#o)"><path style="fill:none;stroke-width:6.94;stroke-linecap:round;stroke-linejoin:round;stroke:#231f20;stroke-opacity:1;stroke-miterlimit:10" d="m892.742 412.552 1143.304 242.456-747.507 993.34Zm0 0" transform="matrix(.0995 0 0 -.0995 .482 189.105)"/></g><g clip-path="url(#p)"><path style="stroke:none;fill-rule:nonzero;fill:#c4adb7;fill-opacity:1" d="M128.695 25.09.828 47.723l88.484 100.332L128.696 25.09"/></g><g clip-path="url(#q)"><path style="fill:none;stroke-width:6.94;stroke-linecap:round;stroke-linejoin:round;stroke:#231f20;stroke-opacity:1;stroke-miterlimit:10" d="M1288.539 1648.347 3.475 1420.887 892.742 412.553Zm0 0" transform="matrix(.0995 0 0 -.0995 .482 189.105)"/></g></svg>
